X:1
T:Title
%%score { 1 | 2 }
L:1/8
M:4/4
K:F
V:1 treble nm="Grand Piano"
V:2 bass 
V:1
 z4 z2[Q:1/4=100] A2 | A3 A _A=ABB | A6 F2 | [B,EG]3 [B,EG] [A,F]2 [CEG]2 |[M:3/4] A6 |[M:1/4] A2 | %6
[M:4/4] A3 A _A=ABB | A6 F2 | [EG]3 [EG] [EA]2 [EG]2 |[M:3/4] [CF]6 |[M:1/4] [CA]2 | %11
[M:4/4] [GB]3 [FB] [EB][DB][EB][DB] | A6 A2 | [Ac]3 [FA] [Ac]2 [FA]2 |[M:3/4] [EG]6 | %15
[M:1/4] [EG]2 |[M:4/4] A3 A BBcc | d6 z2 | F2 F[FG] [FA]2 [EG]2 |[M:3/4] [CF]6 |] %20
V:2
 z4 z2 [F,CF]2 | [F,CF]3 [F,CF] [F,=B,F][F,CF][F,DF][F,^CF] | [F,CF]6 [F,A,]2 | C,3 C, C,2 C,2 | %4
[M:3/4] [F,CF]6 |[M:1/4] [F,CF]2 |[M:4/4] [F,CF]3 [F,CF] [F,=B,F][F,CF][F,DF][F,^CF] | %7
 [F,CF]6 [F,A,]2 | [C,B,]3 [C,B,] [C,C]2 [C,B,]2 |[M:3/4] [F,A,]6 |[M:1/4] [F,A,]2 | %11
[M:4/4] [C,C]3 [C,C] [C,C][C,C][C,C][C,C] | [F,C]6 [F,CF]2 | [F,F]3 [F,C] [F,F]2 [F,C]2 | %14
[M:3/4] [C,C]6 |[M:1/4] [C,C]2 |[M:4/4][K:treble] [F,CF]3 [F,CF] [G,CE][G,CE][A,CF][A,CF] | %17
 [B,F]6 z2 | [F,A,]2 [F,A,][D,=B,] [C,C]2 [C,_B,]2 |[M:3/4] [F,A,]6 |] %20

